!!!OTL: Die Sterne.
!!!OTL-incipit: VIEL TAUSEND STERNE PRANGEN
!!!COM: W. Tschirch
!!!ARE: Europa, Mitteleuropa, Deutschland
!!!SCT: F0989
!!!TXL: @@DE
!!!YEM: Copyright 1995, estate of Helmut Schaffrath.
**kern	**text
*ICvox	*
*M4/4	*
*met(c)	*
*k[b-e-]	*
*B-:	*
!LO:TX:a:t=Mäßig.	!
!LO:TX:a:t=Ʒweiſtimmig.	!
{2b-/	1._Viel
=1	=1
4a	tau-
4f	-ſend
4e-	Ster-
4g	-ne
=2	=2
2f	pran-
4d}	-gen
{4c	am
=3	=3
4d	Him-
4f	-mel
4.b-/	ſtill
8b-/	und
=4	=4
2a	ſchön,
4r}	.
{4f	und
=5	=5
4a	wel-
4b-/	-ken
4cc/	mein
4dd/	Ver-
=6	=6
(4.ff/	-lan-
8ee-/)	.
4dd/}	-gen
{4cc/	hin-
=7	=7
4b-/	-aus
4b-/	in's
4.dd/	Feld
8cc/	ʒu
=8	=8
2cc/	geh'n.
4r}	.
{4f	O
=9	=9
4cc/	e-
4b-/	-wig
4.ee-/	ſchö-
8dd/	-ne
=10	=10
4dd/	Ster-
4cc/	-ne
4r}	.
{4cc/	im
=11	=11
4dd/	e-
4b-/	-wig
4.ff/	glei-
8ee-/	-chen
=12	=12
2dd/	Lauf,
4r}	.
{4dd/	wie
=13	=13
4dd/	blick
4dd/	ich
4.gg/	ſtets
8ff/	ſo
=14	=14
2ff/	ger-
4ee-/}	-ne
{4cc/	ʒu
=15	=15
4b-/	en-
4f	-rem
4.dd/	Glanʒ
8cc/	hin-
=16	=16
2b-/	-auf!
4r}	.
{4f	O
=17	=17
4cc/	e-
4b-/	-wig
4.ee-/	ſchö-
8dd/	-ne
=18	=18
4dd/	Ster-
4cc/	-ne
4r}	.
{4cc/	im
=19	=19
4dd/	e-
4b-	-wig
4.ff/	glei-
8ee-/	-chen
=20	=20
2dd/	Lauf,
4r}	.
{4dd/	wie
=21	=21
4dd/	blick
4dd/	ich
4.gg/	ſtets
8ff/	ſo
=22	=22
2ff/	ger-
4ee-/}	-ne
{4cc/	ʒu
=23	=23
4b-/	en-
4f	-rem
4.dd/	Glanʒ
8cc/	hin-
=24	=24
2b-/}	-auf!
==	==
!!!AGN: Natur - Lied, Sterne
!!!ONB: ESAC (Essen Associative Code) Database: FINK
!!!AMT: simple quadruple
!!!AIN: vox
!!!EED: Helmut Schaffrath
!!!EEV: 1.0
!!Text: M. Schneider
!!!GTL: Lieder um Preise der Natur.
!!!source: Musikalischer Hausschatz der Deutschen. Eine Sammlung von über 1000 Liedern und Gesängen mit Singstimmen und Klavierbegleitung. Leipzig, Litterarisches Verlags-Haus.
!!!page: 745
!!!ENC: Anna Maria Matuszewska
!!!EEV: 2025/03/20
*-	*-
